X:22
T:Polska från Södermanland
T:Svenska Folkdansar H2 nr 22
O:Södermanland
B:Traditioner av Svenska Folkdansar Häfte 2, nr 22
R:Polska
Z:Nils L
M:3/4
L:1/8
K:Dm
d>d A2 f2 | ed ^c2 d2 | ef gf ed | ^ce A4 |
d>d A2 f2 | ed ^c2 d2 | ef gf ed | ^ce A4 |:
f>e f2 a2 | g>f e2 g2 | fe df ed | ^ce d4 :|

